app/dist/common/images/network-intl-hldgs-plc.svg

<svg height="18" viewBox="0 0 18 18" width="18" xmlns="http://www.w3.org/2000/svg"><path d="m0 0h18v18h-18z" fill="#f0f3fa"/><path d="m11.84 6h-1.84l3.16 3.02-3.11 2.98h1.83l3.12-2.98z" fill="#e12e56"/><path d="m7.49 6c-.81 0-2.06.38-2.49 1.12v-1.12h-1v6h1v-3.1c0-1.05 1.04-1.9 2.13-1.9 1.08-.01 1.87.82 1.87 1.77v3.23h1v-3.62c0-1.47-1.08-2.38-2.51-2.38z" fill="#0069b1"/></svg>

<!-- by TradingView --><svg width="18" height="18" viewBox="0 0 18 18" xmlns="http://www.w3.org/2000/svg"><path fill="#F0F3FA" d="M0 0h18v18H0z"/><path d="M11.84 6H10l3.16 3.02L10.05 12h1.83L15 9.02 11.84 6Z" fill="#E12E56"/><path d="M7.49 6C6.68 6 5.43 6.38 5 7.12V6H4v6h1V8.9C5 7.85 6.04 7 7.13 7 8.21 6.99 9 7.82 9 8.77V12h1V8.38C10 6.91 8.92 6 7.49 6Z" fill="#0069B1"/></svg>
